packages/core/src/svgs/tokens/branded/KAI.svg

<svg width="24" height="24" viewBox="0 0 24 24" fill="none" xmlns="http://www.w3.org/2000/svg">
<path d="M10.6114 9.65574L7.8335 2.95508L12.2781 5.21123L10.6114 9.65574Z" fill="#7E4778"/>
<path d="M10.6113 9.65575V5.76681L12.278 5.21124L10.6113 9.65575Z" fill="#9B1B2E"/>
<path d="M10.6114 5.7668L7.8335 2.95508L12.2781 5.21123L10.6114 5.7668Z" fill="#D3302D"/>
<path d="M22.0002 8.54468H17.2778L19.5001 12.4337L22.0002 8.54468Z" fill="#9B2026"/>
<path d="M17.2781 8.54468L13.1113 10.2114L19.5004 12.4337L17.2781 8.54468Z" fill="#BD282E"/>
<path d="M15.0075 4.6557L13.1113 10.2114L17.2781 8.54466L15.0075 4.6557Z" fill="#DD2A2D"/>
<path d="M19.7779 3.82233L17.2778 8.54464H22.0002L19.7779 3.82233Z" fill="#BC2328"/>
<path d="M15.0078 4.65568L17.2784 8.54464L19.7785 3.82233L15.0078 4.65568Z" fill="#EE4642"/>
<path d="M13.3891 20.4894L10.3335 11.8781L17.8336 14.656L13.3891 20.4894Z" fill="#D5302D"/>
<path d="M13.3887 20.4893V14.6559H17.8332L13.3887 20.4893Z" fill="#9D1C21"/>
<path d="M13.3891 14.656L10.3335 11.8781L17.8336 14.656H13.3891Z" fill="#BD2C33"/>
<path d="M5.3334 3.54456L2 7.7113L5.3334 15.4892L11.1668 21.0448L5.3334 3.54456Z" fill="#797CB3"/>
<path d="M8.11133 11.8781L5.3335 15.4893L11.1669 21.0449L8.11133 11.8781Z" fill="#9A1C31"/>
<path d="M5.3334 9.93357L2 7.7113L5.3334 15.4892L8.11123 11.8781L5.3334 9.93357Z" fill="#7F4778"/>
</svg>

<svg xmlns="http://www.w3.org/2000/svg" width="24" height="24" fill="none" viewBox="0 0 24 24">
    <path fill="#7E4778" d="m10.611 9.656-2.778-6.7 4.445 2.255z"/>
    <path fill="#9B1B2E" d="M10.611 9.656v-3.89l1.667-.555z"/>
    <path fill="#D3302D" d="M10.611 5.767 7.833 2.955l4.445 2.256z"/>
    <path fill="#9B2026" d="M22 8.545h-4.722l2.222 3.889z"/>
    <path fill="#BD282E" d="m17.278 8.545-4.167 1.666 6.39 2.223z"/>
    <path fill="#DD2A2D" d="M15.008 4.656 13.11 10.21l4.167-1.666z"/>
    <path fill="#BC2328" d="m19.778 3.822-2.5 4.723H22z"/>
    <path fill="#EE4642" d="m15.008 4.656 2.27 3.889 2.5-4.723z"/>
    <path fill="#D5302D" d="m13.39 20.49-3.056-8.612 7.5 2.778z"/>
    <path fill="#9D1C21" d="M13.389 20.49v-5.834h4.444z"/>
    <path fill="#BD2C33" d="m13.39 14.656-3.056-2.778 7.5 2.778z"/>
    <path fill="#797CB3" d="M5.333 3.545 2 7.71l3.333 7.778 5.834 5.556z"/>
    <path fill="#9A1C31" d="M8.111 11.878 5.333 15.49l5.834 5.556z"/>
    <path fill="#7F4778" d="M5.333 9.934 2 7.71l3.333 7.778 2.778-3.61z"/>
</svg>
